packages/landing-ui/public/contact-form-plants.svg

<svg width="183" height="422" viewBox="0 0 183 422" fill="none" xmlns="http://www.w3.org/2000/svg">
<path d="M62.5926 130.501C83.1555 77.1768 92.7777 23.1178 62.0176 28.8781C31.2575 34.6384 16.3941 128.163 37.4248 198.084L38.8964 223.62C24.4504 172.447 -17.9321 120.887 -43.1927 129.102C-68.4533 137.316 -36.983 169.008 -3.53903 193.187C21.8764 211.764 34.3773 229.508 39.7825 239.193L46.7299 359.625C23.5901 278.549 -43.3794 197.417 -83.328 210.246C-123.277 223.075 -73.46 273.528 -20.371 311.914C19.6993 340.929 39.4759 369.134 48.1559 384.599L49.5905 408.517C53.7919 408.937 57.9933 409.357 62.2143 409.703L53.8844 266.623C62.4898 251.905 73.352 238.629 86.0743 227.279C116.564 199.403 144.032 164.364 118.19 159.087C95.8732 154.558 65.6773 195.535 52.4206 240.619L49.6098 190.955C51.255 170.32 55.6204 149.992 62.5926 130.501Z" fill="#687C94"/>
<path d="M150.961 266.887C175.396 242.332 194.004 214.609 175.495 210.272C156.986 205.935 125.854 254.214 120.424 298.274L114.994 312.809C119.512 280.809 108.534 241.837 92.482 240.233C76.4304 238.629 86.1802 263.996 98.863 285.541C108.514 301.997 111.05 314.968 111.684 321.681L86.0613 390.276C93.0567 339.602 75.6773 278.115 50.2523 275.561C24.8274 273.006 40.344 313.186 60.3788 347.444C75.5783 373.365 79.6605 393.861 80.7108 404.574L75.5981 418.257C77.8374 419.525 80.0767 420.752 82.3358 422L112.814 340.374C121.202 334.294 130.498 329.575 140.359 326.394C164.14 318.354 187.92 305.581 174.88 296.334C163.506 288.413 136.773 303.76 118.363 325.562L128.905 297.324C133.661 289.165 140.419 277.482 150.961 266.887Z" fill="#DEEAF8"/>
</svg>

<svg width="183" height="422" fill="none" xmlns="http://www.w3.org/2000/svg"><path d="M62.593 130.501c20.563-53.324 30.185-107.383-.575-101.623-30.76 5.76-45.624 99.285-24.593 169.206l1.471 25.536c-14.446-51.173-56.828-102.733-82.089-94.518-25.26 8.214 6.21 39.906 39.654 64.085 25.415 18.577 37.916 36.321 43.322 46.006l6.947 120.432C23.59 278.549-43.38 197.417-83.328 210.246c-39.949 12.829 9.868 63.282 62.957 101.668 40.07 29.015 59.847 57.22 68.527 72.685l1.434 23.918c4.202.42 8.403.84 12.624 1.186l-8.33-143.08a162.94 162.94 0 0132.19-39.344c30.49-27.876 57.958-62.915 32.116-68.192-22.317-4.529-52.513 36.448-65.77 81.532l-2.81-49.664a234.925 234.925 0 0112.983-60.454z" fill="#687C94"/><path d="M150.961 266.887c24.435-24.555 43.043-52.278 24.534-56.615-18.509-4.337-49.641 43.942-55.071 88.002l-5.43 14.535c4.518-32-6.46-70.972-22.512-72.576-16.052-1.604-6.302 23.763 6.381 45.308 9.651 16.456 12.187 29.427 12.821 36.14l-25.623 68.595c6.996-50.674-10.384-112.161-35.809-114.715-25.425-2.555-9.908 37.625 10.127 71.883 15.2 25.921 19.282 46.417 20.332 57.13l-5.113 13.683c2.24 1.268 4.479 2.495 6.738 3.743l30.478-81.626a98.42 98.42 0 0127.545-13.98c23.781-8.04 47.561-20.813 34.521-30.06-11.374-7.921-38.107 7.426-56.517 29.228l10.542-28.238c4.756-8.159 11.514-19.842 22.056-30.437z" fill="#DEEAF8"/></svg>
